icons/lines/coin.svg

<svg xmlns="http://www.w3.org/2000/svg" width="24" height="24" viewBox="0 0 24 24" fill="none" stroke="currentColor" stroke-width="2" stroke-linecap="round" stroke-linejoin="round">
  <path d="M18.5 12.65c0 3.12-2.91 5.35-6.5 5.35s-6.5-2.23-6.5-5.35v-5C5.5 4.53 8.41 2 12 2c1.8 0 3.42.63 4.6 1.65 1.17 1.03 1.9 2.44 1.9 4v8.7c0 3.12-2.91 5.65-6.5 5.65s-6.5-2.53-6.5-5.65v-3.7C5.5 15.77 8.41 18 12 18s6.5-2.23 6.5-5.35" />
  <path d="M18.5 7.65a4.7 4.7 0 0 1-.69 2.47C16.74 11.88 14.54 13 12 13s-4.74-1.12-5.81-2.88a4.7 4.7 0 0 1-.69-2.47c0-1.56.73-2.97 1.9-3.99C8.58 2.63 10.2 2 12 2s3.42.63 4.6 1.65c1.17 1.03 1.9 2.44 1.9 4" />
</svg>

<svg xmlns="http://www.w3.org/2000/svg" width="24" height="24" viewBox="0 0 24 24" fill="none" stroke="currentColor" stroke-width="2" stroke-linecap="round" stroke-linejoin="round" >
  <path d="M18.5 12.65V16.35C18.5 19.47 15.59 22 12 22C8.41 22 5.5 19.47 5.5 16.35V12.65C5.5 15.77 8.41 18 12 18C15.59 18 18.5 15.77 18.5 12.65Z"/>
  <path d="M18.5 7.65C18.5 8.56 18.25 9.4 17.81 10.12C16.74 11.88 14.54 13 12 13C9.46 13 7.26 11.88 6.19 10.12C5.75 9.4 5.5 8.56 5.5 7.65C5.5 6.09 6.22999 4.68 7.39999 3.66C8.57999 2.63 10.2 2 12 2C13.8 2 15.42 2.63 16.6 3.65C17.77 4.68 18.5 6.09 18.5 7.65Z"/>
  <path d="M18.5 7.65V12.65C18.5 15.77 15.59 18 12 18C8.41 18 5.5 15.77 5.5 12.65V7.65C5.5 4.53 8.41 2 12 2C13.8 2 15.42 2.63 16.6 3.65C17.77 4.68 18.5 6.09 18.5 7.65Z"/>
  </svg>
